X:1
T:Captain Ward
M:6/8
L:1/8
K:D
 D| E2 E F2 A| B2 B E2 E| A2 A F2 E| D3- D2 F| E2 EE-F A| B3A-B d|\
 B2 B A2 F| E3- E2||

